lib/svgs/tag-reverse.svg

<?xml version="1.0" encoding="UTF-8"?>
<svg width="16px" height="16px" viewBox="0 0 16 16" version="1.1" xmlns="http://www.w3.org/2000/svg" xmlns:xlink="http://www.w3.org/1999/xlink">
    <!-- Generator: sketchtool 51.3 (57544) - http://www.bohemiancoding.com/sketch -->
    <title>tag-reverse</title>
    <desc>Created with sketchtool.</desc>
    <defs></defs>
    <g id="Icons" stroke="none" stroke-width="1" fill="none" fill-rule="evenodd">
        <g id="Deprecated" transform="translate(-20.000000, -200.000000)" fill="#000000">
            <g id="tag-reverse" transform="translate(20.000000, 200.000000)">
                <path d="M0.1875,8.65625 C0.0625,8.46875 0,8.25 0,8 C0,7.75 0.0625,7.53125 0.1875,7.34375 L3.5,2.34375 C3.54166667,2.26041667 3.625,2.15625 3.75,2.03125 C3.8125,1.94791667 3.90625,1.86458333 4.03125,1.78125 C4.09375,1.73958333 4.16145833,1.71354167 4.234375,1.703125 C4.30729167,1.69270833 4.375,1.67708333 4.4375,1.65625 C4.52083333,1.63541667 4.66666667,1.625 4.875,1.625 L14.28125,1.625 C14.5520833,1.625 14.78125,1.66666667 14.96875,1.75 C15.1979167,1.85416667 15.3645833,1.97916667 15.46875,2.125 C15.5520833,2.22916667 15.625,2.328125 15.6875,2.421875 C15.75,2.515625 15.8020833,2.61458333 15.84375,2.71875 C15.9479167,2.92708333 16,3.15625 16,3.40625 L16,12.59375 C16,12.84375 15.9479167,13.0729167 15.84375,13.28125 C15.8020833,13.3854167 15.75,13.484375 15.6875,13.578125 C15.625,13.671875 15.5520833,13.7708333 15.46875,13.875 C15.3645833,14.0208333 15.1979167,14.1458333 14.96875,14.25 C14.78125,14.3333333 14.5520833,14.375 14.28125,14.375 L4.875,14.375 C4.66666667,14.375 4.52083333,14.3645833 4.4375,14.34375 C4.375,14.3229167 4.30729167,14.3072917 4.234375,14.296875 C4.16145833,14.2864583 4.09375,14.2604167 4.03125,14.21875 C3.90625,14.1354167 3.8125,14.0520833 3.75,13.96875 C3.625,13.84375 3.54166667,13.7395833 3.5,13.65625 L0.1875,8.65625 Z M5.65625,5.9375 C5.05208333,5.9375 4.53125,6.15625 4.09375,6.59375 C3.65625,7.03125 3.4375,7.5625 3.4375,8.1875 C3.4375,8.8125 3.65625,9.34895833 4.09375,9.796875 C4.53125,10.2447917 5.05208333,10.46875 5.65625,10.46875 C6.26041667,10.46875 6.78125,10.2447917 7.21875,9.796875 C7.65625,9.34895833 7.875,8.8125 7.875,8.1875 C7.875,7.5625 7.65625,7.03125 7.21875,6.59375 C6.78125,6.15625 6.26041667,5.9375 5.65625,5.9375 L5.65625,5.9375 Z" id="Shape"></path>
            </g>
        </g>
    </g>
</svg>

<svg xmlns="http://www.w3.org/2000/svg" viewBox="0 0 16 16">
    <path d="M.188 8.656A1.155 1.155 0 0 1 0 8c0-.25.063-.469.188-.656l3.312-5a1.34 1.34 0 0 1 .25-.313c.063-.083.156-.166.281-.25a.486.486 0 0 1 .203-.078 2.07 2.07 0 0 1 .64-.078h9.407c.271 0 .5.042.688.125.229.104.396.23.5.375.083.104.156.203.219.297.062.094.114.193.156.297.104.208.156.437.156.687v9.188c0 .25-.052.479-.156.687a1.615 1.615 0 0 1-.156.297 4.274 4.274 0 0 1-.22.297c-.103.146-.27.27-.5.375a1.69 1.69 0 0 1-.687.125H4.875a2.07 2.07 0 0 1-.844-.156 1.135 1.135 0 0 1-.281-.25 1.34 1.34 0 0 1-.25-.313l-3.313-5zm5.468-2.719c-.604 0-1.125.22-1.562.657a2.17 2.17 0 0 0-.657 1.593c0 .626.22 1.162.657 1.61a2.11 2.11 0 0 0 1.562.672 2.11 2.11 0 0 0 1.563-.672c.437-.448.656-.985.656-1.61a2.17 2.17 0 0 0-.656-1.593 2.134 2.134 0 0 0-1.563-.657z"/>
</svg>
